resources/svg/compass-o.svg

<svg xmlns="http://www.w3.org/2000/svg" viewBox="0 0 15 15" fill="none"><path d="M4.5 10.5L4.05279 10.2764C3.95654 10.4689 3.99427 10.7014 4.14645 10.8536C4.29863 11.0057 4.53111 11.0435 4.72361 10.9472L4.5 10.5ZM6.5 6.5L6.27639 6.05279C6.17963 6.10117 6.10117 6.17963 6.05279 6.27639L6.5 6.5ZM10.5 4.5L10.9472 4.72361C11.0435 4.53111 11.0057 4.29863 10.8536 4.14645C10.7014 3.99427 10.4689 3.95654 10.2764 4.05279L10.5 4.5ZM8.5 8.5L8.72361 8.94721C8.82037 8.89883 8.89883 8.82037 8.94721 8.72361L8.5 8.5ZM7.5 14C3.91015 14 1 11.0899 1 7.5H0C0 11.6421 3.35786 15 7.5 15V14ZM14 7.5C14 11.0899 11.0899 14 7.5 14V15C11.6421 15 15 11.6421 15 7.5H14ZM7.5 1C11.0899 1 14 3.91015 14 7.5H15C15 3.35786 11.6421 0 7.5 0V1ZM7.5 0C3.35786 0 0 3.35786 0 7.5H1C1 3.91015 3.91015 1 7.5 1V0ZM4.94721 10.7236L6.94721 6.72361L6.05279 6.27639L4.05279 10.2764L4.94721 10.7236ZM6.72361 6.94721L10.7236 4.94721L10.2764 4.05279L6.27639 6.05279L6.72361 6.94721ZM10.0528 4.27639L8.05279 8.27639L8.94721 8.72361L10.9472 4.72361L10.0528 4.27639ZM8.27639 8.05279L4.27639 10.0528L4.72361 10.9472L8.72361 8.94721L8.27639 8.05279Z" fill="black"/></svg>

<svg xmlns="http://www.w3.org/2000/svg" viewBox="0 0 15 15" fill="none"><path d="M4.5 10.5l-.447-.224a.5.5 0 00.67.671L4.5 10.5zm2-4l-.224-.447a.5.5 0 00-.223.223L6.5 6.5zm4-2l.447.224a.5.5 0 00-.67-.671l.223.447zm-2 4l.224.447a.5.5 0 00.223-.223L8.5 8.5zm-1 5.5A6.5 6.5 0 011 7.5H0A7.5 7.5 0 007.5 15v-1zM14 7.5A6.5 6.5 0 017.5 14v1A7.5 7.5 0 0015 7.5h-1zM7.5 1A6.5 6.5 0 0114 7.5h1A7.5 7.5 0 007.5 0v1zm0-1A7.5 7.5 0 000 7.5h1A6.5 6.5 0 017.5 1V0zM4.947 10.724l2-4-.894-.448-2 4 .894.448zm1.777-3.777l4-2-.448-.894-4 2 .448.894zm3.329-2.67l-2 4 .894.447 2-4-.894-.448zM8.276 8.052l-4 2 .448.894 4-2-.448-.894z" fill="currentColor"/></svg>
